X:1
T:Paris Je T'Aime
T:Paris Je T'Aime
C:Unknown
Z:All Rights Reserved
L:1/4
Q:1/4=120
M:4/4
K:F
V:1 treble nm="MusicXML Part"
%%MIDI program 54
%%MIDI control 7 102
%%MIDI control 10 64
V:1
 A A A |:"Bb" A3/2 G/- G2- |"Bbm" G G/G/- G/F/ E |"F/A" G3/2 F/- F2- |"Abdim" F F F F | %5
"Gm7" F3/2 E/- E2- |"A7" E G E ^C |"Dm" E3/2 D/- D2- | D D _D C |"Bb" B, D F c- | %10
"Eb13" c3/2 _c/ B2 |"Am7" A4- |"D7" A D _D C |1"G7" =B, D F A- | A2 G2 |"C7" F E G2- | G A A A :|2 %17
"Gm7" G4 ||"C13" A4 |"F" F4- | F z z2 |] %21

